uploads/music/play.svg

<?xml version="1.0" encoding="UTF-8"?>
<svg width="37px" height="50px" viewBox="0 0 37 50" version="1.1" xmlns="http://www.w3.org/2000/svg" xmlns:xlink="http://www.w3.org/1999/xlink">
    <!-- Generator: Sketch 50.2 (55047) - http://www.bohemiancoding.com/sketch -->
    <title>play-button</title>
    <desc>Created with Sketch.</desc>
    <defs></defs>
    <g id="Design" stroke="none" stroke-width="1" fill="none" fill-rule="evenodd">
        <g id="v.2-Post" transform="translate(-316.000000, -859.000000)" fill-rule="nonzero">
            <g id="Audio" transform="translate(20.000000, 795.000000)">
                <g id="CONTROLS" transform="translate(289.000000, 64.000000)">
                    <g id="play-button" transform="translate(7.000000, 0.000000)">
                        <path d="M13.6795309,14.9392857 L7.33588791,10.15 C7.16501537,10.0416667 6.97919149,10.0095238 6.79443556,10.0083333 C6.78162012,10.0071429 6.77307649,10 6.76026105,10 C6.73569812,10 6.71540701,10.0142857 6.69084408,10.0154762 C6.59152442,10.025 6.49754452,10.0428571 6.40570053,10.0809524 C6.35337082,10.1011905 6.30851678,10.1285714 6.26152683,10.1571429 C6.1867701,10.2 6.11842108,10.2488095 6.05434388,10.3119048 C6.01482961,10.3511905 5.98385896,10.3940476 5.9507524,10.4392857 C5.91123813,10.4904762 5.86211228,10.5285714 5.83007368,10.5869048 C5.81298642,10.6214286 5.81298642,10.6571429 5.79803507,10.6916667 C5.78201577,10.7297619 5.7745401,10.7690476 5.76172466,10.8095238 C5.7264822,10.925 5.70085132,11.0380952 5.69871541,11.1583333 C5.69764746,11.1702381 5.69230769,11.1797619 5.69230769,11.1904762 L5.69230769,23.0952381 C5.69230769,23.7535714 6.16968284,24.2857143 6.76026105,24.2857143 C7.35083926,24.2857143 7.82821441,23.7535714 7.82821441,23.0952381 L7.82821441,13.425 L12.576335,17.0095238 C13.103904,17.3392857 13.7777826,17.1440476 14.0821493,16.572619 C14.3875839,16 14.2070998,15.2690476 13.6795309,14.9392857 Z" id="Shape" fill="#D96459"></path>
                        <path d="M36.6693198,24.1714464 L1.93191276,0.331364643 C1.48988394,-0.110454881 0.774111387,-0.110454881 0.330960665,0.331364643 C0.107702454,0.553978079 -0.00112190056,0.847010052 0.00224380112,1.13777046 C0.00224380112,1.14117781 0,1.14458516 0,1.1479925 L0,48.8508717 C0,48.8542791 0.00224380112,48.8576864 0.00224380112,48.8610938 C-0.00112190056,49.1529899 0.107702454,49.4460219 0.330960665,49.6686354 C0.774111387,50.1104549 1.48988394,50.1104549 1.93191276,49.6686354 L36.6693198,25.7672213 C37.1102267,25.3265376 37.1102267,24.6109944 36.6693198,24.1714464 Z M2.24380112,46.7598955 L2.24380112,3.23556136 L34.0036841,24.968766 L2.24380112,46.7598955 Z" id="Shape" fill="#000000"></path>
                    </g>
                </g>
            </g>
        </g>
    </g>
</svg>

<svg height="50" viewBox="0 0 37 50" width="37" xmlns="http://www.w3.org/2000/svg"><g fill="none"><path d="m13.6795309 14.9392857-6.34364299-4.7892857c-.17087254-.1083333-.35669642-.1404762-.54145235-.1416667-.01281544-.0011904-.02135907-.0083333-.03417451-.0083333-.02456293 0-.04485404.0142857-.06941697.0154762-.09931966.0095238-.19329956.0273809-.28514355.0654762-.05232971.0202381-.09718375.047619-.1441737.0761905-.07475673.0428571-.14310575.0916666-.20718295.1547619-.03951427.0392857-.07048492.0821428-.10359148.1273809-.03951427.0511905-.08864012.0892857-.12067872.1476191-.01708726.0345238-.01708726.0702381-.03203861.1047619-.0160193.0380952-.02349497.0773809-.03631041.1178571-.03524246.1154762-.06087334.2285714-.06300925.3488095-.00106795.0119048-.00640772.0214286-.00640772.0321429v11.9047619c0 .6583333.47737515 1.1904762 1.06795336 1.1904762s1.06795336-.5321429 1.06795336-1.1904762v-9.6702381l4.74812059 3.5845238c.527569.3297619 1.2014476.1345238 1.5058143-.4369048.3054346-.572619.1249505-1.3035714-.4026184-1.6333333z" fill="#d96459"/><path d="m36.6693198 24.1714464-34.73740704-23.84008176c-.44202882-.44181952-1.15780137-.44181952-1.60095209 0-.22325822.22261344-.33208257.51564541-.32871687.80640582 0 .00340735-.0022438.0068147-.0022438.01022204v47.7028792c0 .0034074.0022438.0068147.0022438.0102221-.0033657.2918961.10545865.5849281.32871687.8075416.44315072.4418195 1.15892327.4418195 1.60095209 0l34.73740704-23.9014141c.4409069-.4406837.4409069-1.1562269 0-1.5957749zm-34.42551868 22.5884491v-43.52433414l31.75988298 21.73320464z" fill="#000"/></g></svg>
